!!!OTL: MEIN SCHATZ IST VIERZIG MEILEN VON HIER
!!!ARE: Europa, Mitteleuropa, Deutschland, Ober - Lahnkreis, Altenkirchen
!!!SCT: E0447B
!!!YEM: Copyright 1995, estate of Helmut Schaffrath.
**kern
*ICvox
*Ivox
*M4/4
*k[f#]
*G:
{4d
=1
4g
4b
4b
8a
8g
=2
4a
4d
4d}
{4d
=3
4cc
4cc
8cc
8ee
8dd
8cc
=4
2b
4r}
{8a
8dd
=5
4a
4a
8b
8a
4g
=6
8f#
8e
4d
4d}
{8b
8dd
=7
8cc
8ee
8dd
8cc
4b
4a
=8
2g
4r}
==
!!!AGN: Liebes - Lied
!!!ONB: ESAC (Essen Associative Code) Database: ERK1
!!!AMT: simple quadruple
!!!AIN: vox
!!!EED: Helmut Schaffrath
!!!EEV: 1.0
*-
